packages/admin/admin-icons/icons/folder-locked.svg

<svg xmlns="http://www.w3.org/2000/svg" width="16" height="16" viewBox="0 0 16 16"><path fill="#242424" fill-rule="evenodd" d="M12.5,6.5 C13.8807119,6.5 15,7.61928813 15,9 L15.5,9 C15.7454599,9 15.9496084,9.17687516 15.9919443,9.41012437 L16,9.5 L16,12 C16,12.2761424 15.7761424,12.5 15.5,12.5 C15.2545401,12.5 15.0503916,12.3231248 15.0080557,12.0898756 L15,12 L15,10 L10,10 L10,14 L15.5,14 C15.7454599,14 15.9496084,14.1768752 15.9919443,14.4101244 L16,14.5 C16,14.7454599 15.8231248,14.9496084 15.5898756,14.9919443 L15.5,15 L9.5,15 C9.25454011,15 9.05039163,14.8231248 9.00805567,14.5898756 L9,14.5 L9,9.5 C9,9.25454011 9.17687516,9.05039163 9.41012437,9.00805567 L9.5,9 L14,9 L14,9 C14,8.17157288 13.3284271,7.5 12.5,7.5 C12.093403,7.5 11.7137345,7.66185988 11.4334404,7.94527196 C11.2392613,8.14161114 10.9226836,8.1433622 10.7263445,7.94918306 C10.5300053,7.75500392 10.5282542,7.43842627 10.7224334,7.2420871 C11.1887021,6.77063158 11.8235121,6.5 12.5,6.5 Z M6.5,1 C6.6060866,1 6.70869717,1.03371419 6.79350724,1.09520918 L6.85355339,1.14644661 L8.707,3 L15.5,3 L15.5,3 C15.7454599,3 15.9496084,3.17687516 15.9919443,3.41012437 L16,3.5 L16,6.5 C16,6.77614237 15.7761424,7 15.5,7 C15.2545401,7 15.0503916,6.82312484 15.0080557,6.58987563 L15,6.5 L15,4 L8.5,4 C8.3939134,4 8.29130283,3.96628581 8.20649276,3.90479082 L8.14644661,3.85355339 L6.293,2 L1,2 L1,12 L7,12 C7.24545989,12 7.44960837,12.1768752 7.49194433,12.4101244 L7.5,12.5 C7.5,12.7454599 7.32312484,12.9496084 7.08987563,12.9919443 L7,13 L0.5,13 C0.254540111,13 0.0503916296,12.8231248 0.00805566941,12.5898756 L0,12.5 L0,1.5 C0,1.25454011 0.176875161,1.05039163 0.410124368,1.00805567 L0.5,1 L6.5,1 Z M12.5,11.25 C12.9142136,11.25 13.25,11.5857864 13.25,12 C13.25,12.4142136 12.9142136,12.75 12.5,12.75 C12.0857864,12.75 11.75,12.4142136 11.75,12 C11.75,11.5857864 12.0857864,11.25 12.5,11.25 Z"/></svg>

<svg width="16" height="16" fill="none" viewBox="0 0 16 16">
  <path fill="#242424" fill-rule="evenodd" d="M12.5 6.501a2.5 2.5 0 0 1 2.5 2.5h.5a.5.5 0 0 1 .492.41l.008.09v2.5a.5.5 0 0 1-.992.09L15 12v-2h-5v4h5.5a.5.5 0 0 1 .492.41l.008.09a.5.5 0 0 1-.41.492L15.5 15h-6a.5.5 0 0 1-.492-.41L9 14.5v-5a.5.5 0 0 1 .41-.492L9.5 9H14a1.5 1.5 0 0 0-2.567-1.055.5.5 0 1 1-.71-.703A2.494 2.494 0 0 1 12.5 6.5Zm-6-5.5a.5.5 0 0 1 .294.095l.06.051 1.853 1.854H15.5a.5.5 0 0 1 .492.41l.008.09v3a.5.5 0 0 1-.992.09L15 6.5V4H8.5a.5.5 0 0 1-.294-.095l-.06-.051L6.293 2H1v10h6a.5.5 0 0 1 .492.41l.008.09a.5.5 0 0 1-.41.492L7 13H.5a.5.5 0 0 1-.492-.41L0 12.5v-11a.5.5 0 0 1 .41-.492L.5 1h6Zm6 10.25a.75.75 0 1 1 0 1.5.75.75 0 0 1 0-1.5Z" clip-rule="evenodd"/>
</svg>
